!!!COM: Palestrina, Giovanni Perluigi da
!!!OPR: Missa Assumpta est Maria
!!!OMD: Kyrie
!!!OTL: Christe
**kern	**kern	**kern	**kern
*Ibass	*Itenor	*Itenor	*Icalto
!Bassus	!Tenor 2	!Tenor 1	!Altus
*clefF4	*clefGv2	*clefGv2	*clefG2
*k[]	*k[]	*k[]	*k[]
*G:mix	*G:mix	*G:mix	*G:mix
*M4/2	*M4/2	*M4/2	*M4/2
=33	=33	=33	=33
0G	0B	0d	0g
=34	=34	=34	=34
1D	1A	1d	1f#
1G	1B	1d	1g
=35	=35	=35	=35
1.C	1.c	2.g	2.e
.	.	4f	4f
.	.	2e	2g
2C	2c	2e	2g
=36	=36	=36	=36
2F	2c	2f	1a
1F	1A	2c	.
.	.	2d	1r
2G	2B	2e	.
=37	=37	=37	=37
2A	2c	2f	0r
2B	2d	1g	.
[1c	2e	.	.
.	2f	[2f	.
=38	=38	=38	=38
1c]	1g	4f]	2r
.	.	8e	.
.	.	8d	.
.	.	2e	1c
1F	1a	2.A	.
.	.	.	2d
.	.	4B	.
=39	=39	=39	=39
1C	2g	[0c	2e
.	1f	.	2f
1C	.	.	2g
.	2e	.	2g
=40	=40	=40	=40
1F	0f	1c]	1a
2r	.	2r	2r
2F	.	2f	2a
=41	=41	=41	=41
2D	0r	2f	2a
2E	.	2e	2g
2F	.	[1d	1f
2G	.	.	.
=42	=42	=42	=42
1A	1r	2d]	2.e
.	.	2c	.
.	.	.	4d
2G#	2r	2B	2e
[2A	2c	2A	[2f
=43	=43	=43	=43
2A]	2A	2c	4f]
.	.	.	4e
2G	2B	2B	4e
.	.	.	8f
.	.	.	8g
1F	2c	2.A	1a
.	2d	.	.
.	.	4B	.
=44	=44	=44	=44
1E	1e	2c	1g
.	.	4B	.
.	.	4A	.
2r	2d	1B	2r
2E	[2e	.	2g
=45	=45	=45	=45
2C	2e]	0r	2g
2D	2d	.	2f
2E	1c	.	1e
2F	.	.	.
=46	=46	=46	=46
1G	2B	1r	2.d
.	2G	.	.
.	.	.	4c
2F#	2A	2r	2d
[2G	[2B	2B	[2e
=47	=47	=47	=47
2G]	2B]	2G	4e]
.	.	.	4d
2F	2A	2A	2d
1E	1G	2B	1g
.	.	2c#	.
=48	=48	=48	=48
4D	1A	1d	1f
4E	.	.	.
4F	.	.	.
4G	.	.	.
2A	2r	2c	2e
2D	2a	[2d	2f
=49	=49	=49	=49
0r	2f	2d]	2d
.	2e	2c	2e
.	2.d	1B-	2f
.	.	.	2g
.	4e	.	.
=50	=50	=50	=50
1r	2f	2.A	1a
.	4e	.	.
.	4d	4B	.
2r	2e	1c	2g
2A	2c	.	[2a
=51	=51	=51	=51
2F	2d	0r	2a]
2G	1e	.	2g
2A	.	.	1f
2B	2d	.	.
=52	=52	=52	=52
1c	2e	1r	1e
.	2g	.	.
2B	2.g	2r	2r
[2c	.	2e	2g
.	4f	.	.
=53	=53	=53	=53
2c]	2e	2c	2a
2B	2d	2d	2b
1A	1c	2e	[1cc
.	.	2f#	.
=54	=54	=54	=54
1G	2.d	1g	2cc]
.	.	.	2b
.	4c	.	.
2r	2d	2f	2a
2E	[2e	[2g	2g
=55	=55	=55	=55
2C	2e]	2g]	1a
2D	2.d	2f	.
2.E	.	1e	[1g
.	4c	.	.
.	[2c	.	.
4F	.	.	.
=56	=56	=56	=56
1G	2c]	1d	1g]
.	2B	.	.
2C	2c	[1e	2r
2c	2e	.	2g
=57	=57	=57	=57
2c	2c	2e]	2a
2B	2d	2d	2b
2A	2e	1c	[1cc
2A	2f#	.	.
=58	=58	=58	=58
1G	1g	2.d	2cc]
.	.	.	2b
.	.	4c	.
2r	2f	2d	2a
2E	[2g	[2e	2g
=59	=59	=59	=59
2C	2g]	2e]	1a
2D	2f	2.d	.
2.E	1e	.	[1g
.	.	4c	.
.	.	[2c	.
4F	.	.	.
=60	=60	=60	=60
1G	1d	2c]	0g]
.	.	2B	.
1C	1c	1e	.
=61	=61	=61	=61
0G	0B	0d	0g
*-	*-	*-	*-
!!!CDT: 1525/^1526/-1594/2/2
!!!OCY: Italia
!!!AGN: Mass (Parody)
!!!AST: renaissance, vocal
!!!ASW: Motet (Palestrina)
!!!PWK: Masses, Book 9
!!!RNB: Cadence finals: C
!!!YOR: Le Opere Complete, v. 25, p. 209
!!!YOO: Rome, Italy: Fratelli Scalera
!!!END: 1992//
!!!EED: John Miller
!!!YEC: Copyright 2000, John Miller
!!!YEN: United States of America
!!!YEM: Rights to all derivative electronic formats reserved.
!!!YEM: Refer to licensing agreement for further details.
!!!YEM: This file must be accompanied by the licensing agreement.
!!!YEM: A copy of the licensing agreement may be found at http://www.music-cog.ohio-state.edu/HumdrumDatabases/Palestrina/license.txt
!!!EMD: converted to Humdrum by Bret Aarden
